X:14158
T:Reel of Bogie, The
R:reel
S:J\"orgen Fischer
Z:id:hn-reel-770
M:C|
K:Edor
BE~E2 BAFA|BFAF DEFA|BE~E2 BAFA|dcdf ~e3d|
BE~E2 BAFA|BFAF DEFA|dcde fdef|1 dBAF ~E2FA:|2 dBAF ~E2FE||
|:D2FA d3c|BAAc BAAF|D2FA dcdA|(3Bcd AF EGFE|
D2FA dcdf|~e3f g2fg|a2ge fdef|1 dBAF ~E2FE:|2 dBAF ~E2FA||
